humanity-icon-theme/Humanity/actions/22/document-print.svg

<?xml version="1.0" encoding="UTF-8" standalone="no"?>
<!-- Created with Inkscape (http://www.inkscape.org/) -->

<svg
   xmlns:svg="http://www.w3.org/2000/svg"
   xmlns="http://www.w3.org/2000/svg"
   xmlns:xlink="http://www.w3.org/1999/xlink"
   version="1.0"
   width="22"
   height="22"
   id="svg11300">
  <defs
     id="defs3">
    <linearGradient
       id="linearGradient6660">
      <stop
         id="stop6662"
         style="stop-color:#787878;stop-opacity:1"
         offset="0" />
      <stop
         id="stop6664"
         style="stop-color:#787878;stop-opacity:0"
         offset="1" />
    </linearGradient>
    <linearGradient
       id="linearGradient6866">
      <stop
         id="stop6868"
         style="stop-color:#828282;stop-opacity:1"
         offset="0" />
      <stop
         id="stop6870"
         style="stop-color:#aaaaaa;stop-opacity:1"
         offset="1" />
    </linearGradient>
    <linearGradient
       id="linearGradient6842">
      <stop
         id="stop6844"
         style="stop-color:#ffffff;stop-opacity:1"
         offset="0" />
      <stop
         id="stop6846"
         style="stop-color:#ffffff;stop-opacity:0"
         offset="1" />
    </linearGradient>
    <linearGradient
       id="linearGradient6828">
      <stop
         id="stop6830"
         style="stop-color:#6e6e6e;stop-opacity:1"
         offset="0" />
      <stop
         id="stop6832"
         style="stop-color:#1e1e1e;stop-opacity:1"
         offset="1" />
    </linearGradient>
    <linearGradient
       id="linearGradient2463">
      <stop
         id="stop2465"
         style="stop-color:#ffffff;stop-opacity:1"
         offset="0" />
      <stop
         id="stop2467"
         style="stop-color:#ffffff;stop-opacity:0"
         offset="1" />
    </linearGradient>
    <linearGradient
       id="linearGradient2366">
      <stop
         id="stop2368"
         style="stop-color:#2e3436;stop-opacity:1"
         offset="0" />
      <stop
         id="stop2370"
         style="stop-color:#555753;stop-opacity:1"
         offset="1" />
    </linearGradient>
    <linearGradient
       id="linearGradient7612">
      <stop
         id="stop7614"
         style="stop-color:#000000;stop-opacity:1"
         offset="0" />
      <stop
         id="stop7616"
         style="stop-color:#000000;stop-opacity:0"
         offset="1" />
    </linearGradient>
    <linearGradient
       id="linearGradient8589">
      <stop
         id="stop8591"
         style="stop-color:#fefefe;stop-opacity:1"
         offset="0" />
      <stop
         id="stop8593"
         style="stop-color:#bebebe;stop-opacity:1"
         offset="1" />
    </linearGradient>
    <radialGradient
       cx="11.537243"
       cy="15.279687"
       r="13"
       fx="11.537243"
       fy="15.279687"
       id="radialGradient5554"
       xlink:href="#linearGradient2463"
       gradientUnits="userSpaceOnUse"
       gradientTransform="matrix(0.3449002,-0.0026213,0.00145995,0.1920948,2.5147917,9.5923987)" />
    <linearGradient
       x1="21.919418"
       y1="21"
       x2="22.007805"
       y2="33"
       id="linearGradient5562"
       xlink:href="#linearGradient6828"
       gradientUnits="userSpaceOnUse"
       gradientTransform="matrix(0.4835921,0,0,0.4597259,0.3937915,1.5874015)" />
    <linearGradient
       x1="15.600636"
       y1="33"
       x2="15.335471"
       y2="21"
       id="linearGradient5564"
       xlink:href="#linearGradient2366"
       gradientUnits="userSpaceOnUse"
       gradientTransform="matrix(0.4835921,0,0,0.4597259,0.3937915,1.5874015)" />
    <radialGradient
       cx="3.7590685"
       cy="11.918329"
       r="21"
       fx="3.7590685"
       fy="11.918329"
       id="radialGradient5577"
       xlink:href="#linearGradient6842"
       gradientUnits="userSpaceOnUse"
       gradientTransform="matrix(0.4633354,0.00804182,-0.00585152,0.288354,0.9480404,9.4950263)" />
    <linearGradient
       x1="11.519291"
       y1="20"
       x2="11.50602"
       y2="37"
       id="linearGradient5581"
       xlink:href="#linearGradient8589"
       gradientUnits="userSpaceOnUse"
       gradientTransform="matrix(0.4883737,0,0,0.5000043,0.2790318,1.2498788)" />
    <linearGradient
       x1="20.561552"
       y1="36.999981"
       x2="20.278992"
       y2="19.999981"
       id="linearGradient5583"
       xlink:href="#linearGradient6866"
       gradientUnits="userSpaceOnUse"
       gradientTransform="matrix(0.4883737,0,0,0.5000043,0.2790319,1.2498888)" />
    <radialGradient
       cx="24"
       cy="41.875"
       r="19.125"
       fx="24"
       fy="41.875"
       id="radialGradient5591"
       xlink:href="#linearGradient7612"
       gradientUnits="userSpaceOnUse"
       gradientTransform="matrix(0.627451,0,0,0.1699345,-3.0588235,13.633987)" />
    <linearGradient
       x1="12"
       y1="10"
       x2="12"
       y2="3"
       id="linearGradient6666"
       xlink:href="#linearGradient6660"
       gradientUnits="userSpaceOnUse"
       gradientTransform="translate(-1,-1)" />
  </defs>
  <g
     transform="translate(-1,-1)"
     id="g5529">
    <path
       d="M 24,20.75 C 24,22.544925 18.627417,24 12,24 5.3725828,24 5e-8,22.544925 5e-8,20.75 5e-8,18.955074 5.3725828,17.499999 12,17.499999 c 6.627417,0 12,1.455075 12,3.250001 l 0,0 z"
       id="path3087"
       style="opacity:0.7;fill:url(#radialGradient5591);fill-opacity:1;fill-rule:nonzero;stroke:none;stroke-width:4;marker:none;visibility:visible;display:inline;overflow:visible" />
    <rect
       width="14.999916"
       height="10.999916"
       rx="0.29157394"
       ry="0.36184993"
       x="4.500042"
       y="5.500042"
       id="rect2315"
       style="fill:#505050;fill-opacity:1;stroke:#3c3d3a;stroke-width:1.00008368;stroke-linecap:round;stroke-linejoin:round;stroke-miterlimit:4;stroke-opacity:1;stroke-dasharray:none;display:inline" />
    <g
       transform="translate(4,0.9999992)"
       id="layer1">
      <path
         d="m 1.4976268,0.49762721 13.0047472,0.002374 c 0,3.90746299 0,11.09490679 0,15.00237279 -4.334914,0 -8.6698338,0 -13.0047472,0 0,-5.001584 0,-10.0031634 0,-15.00474638 z"
         id="rect2594"
         style="fill:#f4f4f4;fill-opacity:1;stroke:#b5b6b2;stroke-width:0.9952535;stroke-linecap:butt;stroke-linejoin:round;stroke-miterlimit:4;stroke-opacity:1;stroke-dasharray:none;stroke-dashoffset:0;display:inline" />
    </g>
    <path
       d="m 2.5074017,19.499855 c 0.037084,0.51806 -0.096022,1.075538 0.1174382,1.555517 0.4004353,0.609192 1.2841971,0.408879 1.8751601,0.44374 0.010664,0.359614 0.043357,0.914773 0.5,0.991267 4.8238775,0.01951 9.175572,0.0028 14,0.0084 0.49786,0.01588 0.516095,-0.580789 0.5,-0.959423 0.162596,-0.09327 0.624708,-0.01381 0.849253,-0.0402 0.5556,0.08151 1.234943,-0.329792 1.142361,-1.013692 0,-0.328521 0,-0.657046 0,-0.985565 -6.328071,0 -12.6561415,0 -18.9842123,0 z"
       id="rect6333"
       style="fill:#505050;fill-opacity:1;stroke:#3c3d3a;stroke-width:0.99970871;stroke-linecap:square;stroke-linejoin:miter;stroke-miterlimit:4;stroke-opacity:1;stroke-dasharray:none" />
    <path
       d="m 2.5152783,11.499966 18.9694417,0 c 0.562484,0 1.015314,0.463613 1.015314,1.039492 l 0,6.960576 -21.000068,0 0,-6.960576 c 0,-0.575879 0.4528294,-1.039492 1.0153123,-1.039492 z"
       id="rect2313"
       style="fill:url(#linearGradient5581);fill-opacity:1;stroke:url(#linearGradient5583);stroke-width:0.99993205;stroke-linecap:round;stroke-linejoin:round;stroke-miterlimit:4;stroke-opacity:1;stroke-dasharray:none" />
    <path
       d="m 2.9633695,12.499953 18.0732605,0 c 0.240428,0 0.463417,0.206223 0.463417,0.428579 l 0,5.571515 -19.0000942,0 0,-5.571515 c 0,-0.222356 0.2229882,-0.428579 0.4634167,-0.428579 z"
       id="rect2374"
       style="opacity:0.9;fill:none;stroke:url(#radialGradient5577);stroke-width:0.99990559;stroke-linecap:round;stroke-linejoin:miter;stroke-miterlimit:4;stroke-opacity:1;stroke-dasharray:none;display:inline" />
    <rect
       width="13.056984"
       height="5.0569839"
       x="5.471508"
       y="11.471508"
       id="rect2319"
       style="fill:url(#linearGradient5562);fill-opacity:1;stroke:url(#linearGradient5564);stroke-width:0.94301587;stroke-linecap:round;stroke-linejoin:miter;stroke-miterlimit:4;stroke-opacity:1;stroke-dasharray:none" />
    <rect
       width="11.000179"
       height="3.00018"
       x="6.4999099"
       y="12.49991"
       id="rect2459"
       style="opacity:0.3;fill:none;stroke:url(#radialGradient5554);stroke-width:0.99982005;stroke-linecap:round;stroke-linejoin:miter;stroke-miterlimit:4;stroke-opacity:1;stroke-dasharray:none;display:inline" />
    <path
       d="m 21,17.5 c 2.42e-4,0.276071 -0.223687,0.5 -0.5,0.5 -0.276314,0 -0.500242,-0.223929 -0.5,-0.5 -2.42e-4,-0.276071 0.223686,-0.5 0.5,-0.5 0.276313,0 0.500242,0.223929 0.5,0.5 l 0,0 z"
       id="path2764"
       style="fill:#6efb27;fill-opacity:1;stroke:none" />
    <path
       d="m 19,20 0,1.75 C 19,21.8885 18.902437,22 18.78125,22 L 5.21875,22 C 5.0975625,22 5,21.8885 5,21.75 L 5,20 19,20 z"
       id="rect6331"
       style="fill:#e6e6e6;fill-opacity:1;stroke:none" />
    <rect
       width="12"
       height="0.99999994"
       x="6"
       y="20"
       id="rect6329"
       style="fill:#323232;fill-opacity:1;stroke:none" />
  </g>
  <path
     d="M 15,5 10.989952,9 7,5 9,5 9,2 l 4,0 0,3 2,0 z"
     id="path4348"
     style="fill:url(#linearGradient6666);fill-opacity:1;fill-rule:nonzero;stroke:none;stroke-width:0.30784842;marker:none;visibility:visible;display:inline;overflow:visible" />
</svg>

<?xml version="1.0" encoding="UTF-8" standalone="no"?>
<!-- Created with Inkscape (http://www.inkscape.org/) -->
<svg id="svg11300" xmlns="http://www.w3.org/2000/svg" height="22" width="22" version="1.0" xmlns:xlink="http://www.w3.org/1999/xlink">
 <defs id="defs3">
  <radialGradient id="radialGradient5554" gradientUnits="userSpaceOnUse" cy="15.28" cx="11.537" gradientTransform="matrix(.34490 -.0026213 0.00146 .19209 2.5148 9.5924)" r="13">
   <stop id="stop2465" style="stop-color:#fff" offset="0"/>
   <stop id="stop2467" style="stop-color:#fff;stop-opacity:0" offset="1"/>
  </radialGradient>
  <linearGradient id="linearGradient5562" y2="33" gradientUnits="userSpaceOnUse" x2="22.008" gradientTransform="matrix(.48359 0 0 .45973 .39379 1.5874)" y1="21" x1="21.919">
   <stop id="stop6830" style="stop-color:#6e6e6e" offset="0"/>
   <stop id="stop6832" style="stop-color:#1e1e1e" offset="1"/>
  </linearGradient>
  <linearGradient id="linearGradient5564" y2="21" gradientUnits="userSpaceOnUse" x2="15.335" gradientTransform="matrix(.48359 0 0 .45973 .39379 1.5874)" y1="33" x1="15.601">
   <stop id="stop2368" style="stop-color:#2e3436" offset="0"/>
   <stop id="stop2370" style="stop-color:#555753" offset="1"/>
  </linearGradient>
  <radialGradient id="radialGradient5577" gradientUnits="userSpaceOnUse" cy="11.918" cx="3.7591" gradientTransform="matrix(.46334 .0080418 -.0058515 .28835 .94804 9.495)" r="21">
   <stop id="stop6844" style="stop-color:#fff" offset="0"/>
   <stop id="stop6846" style="stop-color:#fff;stop-opacity:0" offset="1"/>
  </radialGradient>
  <linearGradient id="linearGradient5581" y2="37" gradientUnits="userSpaceOnUse" x2="11.506" gradientTransform="matrix(.48837 0 0 0.5 .27903 1.2499)" y1="20" x1="11.519">
   <stop id="stop8591" style="stop-color:#fefefe" offset="0"/>
   <stop id="stop8593" style="stop-color:#bebebe" offset="1"/>
  </linearGradient>
  <linearGradient id="linearGradient5583" y2="20" gradientUnits="userSpaceOnUse" x2="20.279" gradientTransform="matrix(.48837 0 0 0.5 .27903 1.2499)" y1="37" x1="20.562">
   <stop id="stop6868" style="stop-color:#828282" offset="0"/>
   <stop id="stop6870" style="stop-color:#aaa" offset="1"/>
  </linearGradient>
  <radialGradient id="radialGradient5591" gradientUnits="userSpaceOnUse" cy="41.875" cx="24" gradientTransform="matrix(.62745 0 0 .16993 -3.0588 13.634)" r="19.125">
   <stop id="stop7614" offset="0"/>
   <stop id="stop7616" style="stop-opacity:0" offset="1"/>
  </radialGradient>
  <linearGradient id="linearGradient6666" y2="3" gradientUnits="userSpaceOnUse" x2="12" gradientTransform="translate(-1,-1)" y1="10" x1="12">
   <stop id="stop6662" style="stop-color:#787878" offset="0"/>
   <stop id="stop6664" style="stop-color:#787878;stop-opacity:0" offset="1"/>
  </linearGradient>
 </defs>
 <g id="g5529" transform="translate(-1,-1)">
  <path id="path3087" style="opacity:.7;fill:url(#radialGradient5591)" d="m24 20.75c0 1.795-5.373 3.25-12 3.25-6.6274 0-12-1.455-12-3.25 5e-8 -1.795 5.3726-3.25 12-3.25s12 1.4551 12 3.25z"/>
  <rect id="rect2315" style="stroke-linejoin:round;stroke:#3c3d3a;stroke-linecap:round;stroke-width:1.0001;fill:#505050" rx=".29157" ry=".36185" height="11" width="15" y="5.5" x="4.5"/>
  <g id="layer1" transform="translate(4 1)">
   <path id="rect2594" style="stroke-linejoin:round;stroke:#b5b6b2;stroke-width:.99525;fill:#f4f4f4" d="m1.4976 0.49763 13.005 0.002374v15.002h-13.005v-15.005z"/>
  </g>
  <path id="rect6333" style="stroke:#3c3d3a;stroke-linecap:square;stroke-width:.99971;fill:#505050" d="m2.5074 19.5c0.037084 0.51806-0.096022 1.0755 0.11744 1.5555 0.40044 0.60919 1.2842 0.40888 1.8752 0.44374 0.010664 0.35961 0.043357 0.91477 0.5 0.99127 4.8239 0.01951 9.1756 0.0028 14 0.0084 0.49786 0.01588 0.5161-0.58079 0.5-0.95942 0.1626-0.09327 0.62471-0.01381 0.84925-0.0402 0.5556 0.08151 1.2349-0.32979 1.1424-1.0137v-0.98556h-18.984z"/>
  <path id="rect2313" style="stroke-linejoin:round;stroke:url(#linearGradient5583);stroke-linecap:round;stroke-width:.99993;fill:url(#linearGradient5581)" d="m2.5153 11.5h18.969c0.56248 0 1.0153 0.46361 1.0153 1.0395v6.9606h-21v-6.9606c0-0.57588 0.45283-1.0395 1.0153-1.0395z"/>
  <path id="rect2374" style="opacity:.9;stroke:url(#radialGradient5577);stroke-linecap:round;stroke-width:.99991;fill:none" d="m2.9634 12.5h18.073c0.24043 0 0.46342 0.20622 0.46342 0.42858v5.5715h-19v-5.5715c0-0.22236 0.22299-0.42858 0.46342-0.42858z"/>
  <rect id="rect2319" style="stroke:url(#linearGradient5564);stroke-linecap:round;stroke-width:.94302;fill:url(#linearGradient5562)" height="5.057" width="13.057" y="11.472" x="5.4715"/>
  <rect id="rect2459" style="opacity:.3;stroke:url(#radialGradient5554);stroke-linecap:round;stroke-width:.99982;fill:none" height="3.0002" width="11" y="12.5" x="6.4999"/>
  <path id="path2764" style="fill:#6efb27" d="m21 17.5c0.000242 0.27607-0.22369 0.5-0.5 0.5s-0.50024-0.22393-0.5-0.5c-0.000242-0.27607 0.22369-0.5 0.5-0.5s0.50024 0.22393 0.5 0.5z"/>
  <path id="rect6331" style="fill:#e6e6e6" d="m19 20v1.75c0 0.138-0.098 0.25-0.219 0.25h-13.562c-0.1214 0-0.219-0.112-0.219-0.25v-1.75h14z"/>
  <rect id="rect6329" style="fill:#323232" height="1" width="12" y="20" x="6"/>
 </g>
 <path id="path4348" style="fill:url(#linearGradient6666)" d="m15 5-4.01 4-3.99-4h2v-3h4v3h2z"/>
</svg>
